!!!OTL: Shiyue ge
!!!ARE: Asia, China,ÿShandong Zibo
!! III, 320
!!!SCT: C1755
!!!YEM: Copyright 1995, estate of Helmut Schaffrath.
**kern
*ICvox
*Ivox
*M2/4
*k[b-]
*F:
{16dd
16cc
16dd
16ff
8cc
8a
=1
16dd
16cc
16dd
16ff
8cc
8a
=2
8dd
16cc
16dd
8ff
8a
=3
16g
16a
16g
16f
4g}
=4
{8.g
16a
4cc
=5
8.ff
16dd
4cc
=6
8g
16g
16a
16g
16f
8d
=7
2c}
=8
{8f
16c
16d
4f
=9
8.g
16a
4cc
=10
16dd
16ff
4a
8g
=11
8f
4f
8r}
=12
{8.g
16a
8cc
16dd
16cc
=13
8g
16a
16g
8d
8c
=14
8.f
16a
16g
16f
8d
=15
2c}
=16
{8g
8f
8g
8a
=17
8cc
4.ff
=18
16dd
16ff
4a
8g
=19
8f
4f
8r}
=20
{8.g
16a
8cc
16dd
16cc
=21
8g
16a
16g
8d
8c
=22
8.f
16a
16g
16f
8d
=23
2c}
==
!!!AGN: Xiaodiao
!!!AMT: simple duple
!!!AIN: vox
!!!EED: Helmut Schaffrath
!!!EEV: 1.0
*-
